X:290
T:Chips and Shavins
A:Wyresdale, Lancashire
B:H.S.J. Jackson, 1823
L:1/8
M:C
O:England
Z:Richard Robinson 
%%TUNEURL: http://www.leeds.ac.uk/music/Info/RRTuneBk/gettune/00000e19.html
%%ID:00000e19
K:D
dAFD G2(FE) | DFAF GFFc       |   dAFD G2FE | DFAG FDD2 :: \
dfaf g2fe   | dfaf geef       | ! dfaf g2fe | dBAG FDD2 |\
dfaf g2fe   | dfaf ge (ef/g/) |   afge fded | dBAG FDD2 ::
